X:403
T: VATER NOAH WEINERFINDER
N: F0738A
O: Europa, Mitteleuropa, Deutschland
R: Geselligkeits -, Trink - Lied
M: 6/8
L: 1/16
K: C
 | C4C2C2B,2A,2 | G,2A,2^F,2G,4G,2 |
C3B,C2D2=F2D2 | B,3A,B,2C6 |
D4D2D4B,2 | A,2B,2C2B,4G,2 |
D4D2D2C2B,2 | A,2G,2A,2G,4z2 |
C4G,2E4C2 | G2E2C2F6 |
E4E2F3ED2 | C2D2B,2C4z2

@@@ Tune index: 5834
